X: 11
T: Miss Fanny Powers
C: O'Carolan
T: Dance: Rockside
N: Rockside is the name of Kathleen and Robert Rushton's house.
N: First danced at NW Craven Day School on Robert's birthday.
B: Social Dances 2002
R: jig, waltz
Z: 2014 John Chambers <jc:trillian.mit.edu>
M: 6/8
L: 1/8
K: A
E |\
"A"A2E "F#m"ABc | "Bm"d2c B2A | "E7"G2F EFE | "B7"G2A "E7"B2d |\
"A"cBA "A7/C#"cde | "Bm/D"f2B "Bm"B2A | "E7"GFE EFG | "A"A3 Acd ||
"A"ecd "E7/G#"efg | "F#m"a2a "A/C#"a3 | "D"fde "Bm"fdc | "E7/G#"B2B "E7"Bed |\
"A"cde "D"fga | "E7"gfe "Fdim"a2f | "A/E"edc "E7"BAG | "A"A3 A2 :|

%%sep 1 1 500
%%sep 1 1 500
